assets/img/braze_icons/award-02.svg

<svg fill="none" height="24" viewBox="0 0 24 24" width="24" xmlns="http://www.w3.org/2000/svg"><path clip-rule="evenodd" d="m12 1c-4.69442 0-8.5 3.80558-8.5 8.5 0 2.3525.95569 4.4818 2.5 6.0208v6.4793c0 .3318.1646.642.43937.828.27477.1861.62393.2237.93202.1004l4.62861-1.8514 4.6286 1.8514c.3081.1233.6573.0857.932-.1004.2748-.186.4394-.4962.4394-.828v-6.4793c1.5443-1.539 2.5-3.6683 2.5-6.0208 0-4.69442-3.8056-8.5-8.5-8.5zm-4 16.0019c1.19215.637 2.5539.9981 4 .9981s2.8079-.3611 4-.9981v3.5211l-3.3315-1.3326-.0215-.0087c-.0788-.0321-.2415-.0985-.4196-.1258-.1507-.0231-.3041-.0231-.4548 0-.1781.0273-.3408.0937-.4196.1258l-.0215.0087-3.3315 1.3326z" fill="#801ed7" fill-rule="evenodd"/></svg>

<svg width="24" height="24" viewBox="0 0 24 24" fill="none" xmlns="http://www.w3.org/2000/svg">
<path fill-rule="evenodd" clip-rule="evenodd" d="M12 1C7.30558 1 3.5 4.80558 3.5 9.5C3.5 11.8525 4.45569 13.9818 6 15.5208V22.0001C6 22.3319 6.1646 22.6421 6.43937 22.8281C6.71414 23.0142 7.0633 23.0518 7.37139 22.9285L12 21.0771L16.6286 22.9285C16.9367 23.0518 17.2859 23.0142 17.5606 22.8281C17.8354 22.6421 18 22.3319 18 22.0001V15.5208C19.5443 13.9818 20.5 11.8525 20.5 9.5C20.5 4.80558 16.6944 1 12 1ZM8 17.0019C9.19215 17.6389 10.5539 18 12 18C13.4461 18 14.8079 17.6389 16 17.0019V20.523L12.6685 19.1904L12.647 19.1817C12.5682 19.1496 12.4055 19.0832 12.2274 19.0559C12.0767 19.0328 11.9233 19.0328 11.7726 19.0559C11.5945 19.0832 11.4318 19.1496 11.353 19.1817L11.3315 19.1904L8 20.523V17.0019Z" fill="#801ED7"/>
</svg>
